src/assets/svg/doc.svg

<svg width="49" height="65" viewBox="0 0 49 65" fill="none" xmlns="http://www.w3.org/2000/svg">
<path d="M36.3554 0.5L48.25 12.3946V64.5H0.5V0.5H36.3554Z" fill="white" stroke="#E10303"/>
<path d="M48.75 12.1875H36.5625V0" fill="#E10303"/>
<mask id="path-3-inside-1" fill="white">
<path d="M30.3995 35.6992V52.881H29.2145L24.4747 48.1412L19.7349 52.881H18.55V35.6992"/>
</mask>
<path d="M30.3995 52.881V53.881H31.3995V52.881H30.3995ZM29.2145 52.881L28.5074 53.5881L28.8003 53.881H29.2145V52.881ZM24.4747 48.1412L25.1818 47.4341L24.4747 46.727L23.7676 47.4341L24.4747 48.1412ZM19.7349 52.881V53.881H20.1491L20.442 53.5881L19.7349 52.881ZM18.55 52.881H17.55V53.881H18.55V52.881ZM29.3995 35.6992V52.881H31.3995V35.6992H29.3995ZM30.3995 51.881H29.2145V53.881H30.3995V51.881ZM29.9216 52.1739L25.1818 47.4341L23.7676 48.8483L28.5074 53.5881L29.9216 52.1739ZM23.7676 47.4341L19.0278 52.1739L20.442 53.5881L25.1818 48.8483L23.7676 47.4341ZM19.7349 51.881H18.55V53.881H19.7349V51.881ZM19.55 52.881V35.6992H17.55V52.881H19.55Z" fill="#E10303" mask="url(#path-3-inside-1)"/>
<path d="M24.4745 38.0691C29.71 38.0691 33.9541 33.8249 33.9541 28.5895C33.9541 23.354 29.71 19.1099 24.4745 19.1099C19.2391 19.1099 14.9949 23.354 14.9949 28.5895C14.9949 33.8249 19.2391 38.0691 24.4745 38.0691Z" fill="#E10303"/>
<path d="M24.4998 36.9961C29.1942 36.9961 32.9998 33.1905 32.9998 28.4961C32.9998 23.8017 29.1942 19.9961 24.4998 19.9961C19.8054 19.9961 15.9998 23.8017 15.9998 28.4961C15.9998 33.1905 19.8054 36.9961 24.4998 36.9961Z" fill="white"/>
</svg>

<svg width="49" height="65" fill="none" xmlns="http://www.w3.org/2000/svg">
  <path d="M36.355.5L48.25 12.395V64.5H.5V.5h35.855z" fill="#fff" stroke="#E10303" />
  <path d="M48.75 12.188H36.562V0" fill="#E10303" />
  <mask id="prefix__a" fill="#fff">
    <path d="M30.4 35.7V52.88h-1.185l-4.74-4.74-4.74 4.74H18.55V35.699" />
  </mask>
  <path
    d="M30.4 52.881v1h1v-1h-1zm-1.185 0l-.708.707.293.293h.415v-1zm-4.74-4.74l.707-.707-.707-.707-.707.707.707.707zm-4.74 4.74v1h.414l.293-.293-.707-.707zm-1.185 0h-1v1h1v-1zM29.4 35.699v17.182h2V35.699h-2zm1 16.182h-1.185v2h1.184v-2zm-.478.293l-4.74-4.74-1.414 1.414 4.74 4.74 1.414-1.414zm-6.154-4.74l-4.74 4.74 1.414 1.414 4.74-4.74-1.414-1.414zm-4.033 4.447H18.55v2h1.185v-2zm-.185 1V35.699h-2v17.182h2z"
    fill="#E10303" mask="url(#prefix__a)" />
  <path d="M24.474 38.07a9.48 9.48 0 100-18.96 9.48 9.48 0 000 18.96z" fill="#E10303" />
  <path d="M24.5 36.996a8.5 8.5 0 100-17 8.5 8.5 0 000 17z" fill="#fff" />
</svg>
